src/social-angular.svg

<?xml version="1.0" encoding="utf-8"?>
<!-- Generated by IcoMoon.io -->
<!DOCTYPE svg PUBLIC "-//W3C//DTD SVG 1.1//EN" "http://www.w3.org/Graphics/SVG/1.1/DTD/svg11.dtd">
<svg version="1.1" xmlns="http://www.w3.org/2000/svg" xmlns:xlink="http://www.w3.org/1999/xlink" width="512" height="512" viewBox="0 0 512 512">
<path fill="#000000" d="M213.573 256h84.846l-42.427-89.356z"></path>
<path fill="#000000" d="M255.981 32l-223.981 80 46.12 272 177.88 96 177.75-96 46.25-272-224.019-80zM344 352l-26.589-56h-122.827l-26.584 56h-40l128-280 128 280h-40z"></path>
</svg>

<?xml version="1.0" encoding="utf-8"?>
<!-- Generator: Adobe Illustrator 16.2.1, SVG Export Plug-In . SVG Version: 6.00 Build 0)  -->
<!DOCTYPE svg PUBLIC "-//W3C//DTD SVG 1.1//EN" "http://www.w3.org/Graphics/SVG/1.1/DTD/svg11.dtd">
<svg version="1.1" id="Layer_1" xmlns="http://www.w3.org/2000/svg" xmlns:xlink="http://www.w3.org/1999/xlink" x="0px" y="0px"
	 width="512px" height="512px" viewBox="0 0 512 512" enable-background="new 0 0 512 512" xml:space="preserve">
<g>
	<polygon points="213.573,256 298.419,256 255.992,166.644 	"/>
	<path d="M255.981,32L32,112l46.12,272L256,480l177.75-96L480,112L255.981,32z M344,352l-26.589-56H194.584L168,352h-40L256,72
		l128,280H344z"/>
</g>
</svg>
